X:1894
T:Bourrée de Bethmale
R:Bourrée
C:trad
A:Ariège
O:France
M:2/4
L:1/8
Q:1/4=120
K:C
ef|gg/2g/2 ga|ag ab|ag/2g/2 gf|e2:||:cd|ee/2e/2 eg|f2 de|fg/2f/2 ed|1ec:|2c2||


